X: 20871
T: Jolly Ploughboy, The
R: hornpipe
M: 4/4
K: Gmajor
|:F2|DGGF G3D|GBde fdeg|(3fed cA dBcA|(3GAB AG FDDE|
DGGF G3D|GBde fdeg|(3fed cA dBcA|D2G2 G2:|
|:de|fdeg (3fed cA|defg fdfa|bgaf gede|fdcA dBcA|
DGGF G3D|GBde fdeg|(3fed cA dBcA|D2G2 G2:|

